icons/desktop/16/svg/price-16.svg

<svg width="16" height="16" viewBox="0 0 16 16" fill="none" xmlns="http://www.w3.org/2000/svg">
<path d="M6 5C6.55228 5 7 5.44772 7 6C7 6.55228 6.55228 7 6 7C5.44772 7 5 6.55228 5 6C5 5.44772 5.44772 5 6 5Z" fill="black"/>
<path fill-rule="evenodd" clip-rule="evenodd" d="M8.28809 2C8.75012 2.00002 9.19644 2.18272 9.52539 2.5127L14.1895 7.17676C15.1599 8.14733 15.2839 9.70229 14.4268 10.8008C13.926 11.4426 13.3366 12.1209 12.6455 12.8037C12.0153 13.4266 11.3904 13.9659 10.7959 14.4297C9.76677 15.2319 8.33846 15.1697 7.36621 14.3623L7.17773 14.1904L2.5127 9.52539C2.18542 9.19812 2.00002 8.75247 2 8.28809V3.75C2 2.78379 2.78379 2 3.75 2H8.28809ZM3.75 3.5C3.61221 3.5 3.5 3.61221 3.5 3.75V8.28809C3.50002 8.35364 3.52656 8.41816 3.57324 8.46484L8.2373 13.1289C8.65898 13.55 9.30494 13.6159 9.78125 13.3125L9.87402 13.2461C10.4254 12.816 11.0052 12.3152 11.5908 11.7363L12.0537 11.2627C12.4997 10.7905 12.8952 10.3251 13.2441 9.87793C13.6229 9.3925 13.5782 8.68674 13.1289 8.2373L8.46484 3.57324L8.46289 3.57227C8.41801 3.52715 8.35535 3.50002 8.28809 3.5H3.75Z" fill="black"/>
</svg>

<!-- This Source Code Form is subject to the terms of the Mozilla Public
   - License, v. 2.0. If a copy of the MPL was not distributed with this
   - file, You can obtain one at http://mozilla.org/MPL/2.0/. -->
<svg xmlns="http://www.w3.org/2000/svg" width="16" height="16" fill="context-fill" fill-opacity="context-fill-opacity" viewBox="0 0 16 16">
    <path d="M6 5a1 1 0 1 1 0 2 1 1 0 0 1 0-2" />
    <path fill-rule="evenodd" d="M8.288 2c.462 0 .908.183 1.237.513l4.665 4.664c.97.97 1.094 2.525.237 3.624a20.8 20.8 0 0 1-3.631 3.629c-1.03.802-2.458.74-3.43-.068l-.188-.172-4.665-4.665A1.75 1.75 0 0 1 2 8.288V3.75C2 2.784 2.784 2 3.75 2zM3.75 3.5a.25.25 0 0 0-.25.25v4.538c0 .066.027.13.073.177l4.664 4.664a1.246 1.246 0 0 0 1.544.184l.093-.067a20 20 0 0 0 1.717-1.51l.463-.473c.446-.473.841-.938 1.19-1.385a1.243 1.243 0 0 0-.115-1.64L8.465 3.572h-.002a.25.25 0 0 0-.175-.073z" clip-rule="evenodd" />
</svg>
